blur-linear.svg

<svg fill="currentColor" viewBox="0 0 24 24"><path d="M13 17a1 1 0 0 0 1-1 1 1 0 0 0-1-1 1 1 0 0 0-1 1 1 1 0 0 0 1 1m0-4a1 1 0 0 0 1-1 1 1 0 0 0-1-1 1 1 0 0 0-1 1 1 1 0 0 0 1 1m0-4a1 1 0 0 0 1-1 1 1 0 0 0-1-1 1 1 0 0 0-1 1 1 1 0 0 0 1 1m4 3.5a.5.5 0 0 0 .5-.5.5.5 0 0 0-.5-.5.5.5 0 0 0-.5.5.5.5 0 0 0 .5.5m0-4a.5.5 0 0 0 .5-.5.5.5 0 0 0-.5-.5.5.5 0 0 0-.5.5.5.5 0 0 0 .5.5M3 3v2h18V3m-4 13.5a.5.5 0 0 0 .5-.5.5.5 0 0 0-.5-.5.5.5 0 0 0-.5.5.5.5 0 0 0 .5.5M9 17a1 1 0 0 0 1-1 1 1 0 0 0-1-1 1 1 0 0 0-1 1 1 1 0 0 0 1 1m-4-3.5A1.5 1.5 0 0 0 6.5 12 1.5 1.5 0 0 0 5 10.5 1.5 1.5 0 0 0 3.5 12 1.5 1.5 0 0 0 5 13.5m0-4A1.5 1.5 0 0 0 6.5 8 1.5 1.5 0 0 0 5 6.5 1.5 1.5 0 0 0 3.5 8 1.5 1.5 0 0 0 5 9.5M3 21h18v-2H3M9 9a1 1 0 0 0 1-1 1 1 0 0 0-1-1 1 1 0 0 0-1 1 1 1 0 0 0 1 1m0 4a1 1 0 0 0 1-1 1 1 0 0 0-1-1 1 1 0 0 0-1 1 1 1 0 0 0 1 1m-4 4.5A1.5 1.5 0 0 0 6.5 16 1.5 1.5 0 0 0 5 14.5 1.5 1.5 0 0 0 3.5 16 1.5 1.5 0 0 0 5 17.5"/></svg>

<svg  viewBox="0 0 24 24" fill="currentColor"><path  d="M13,17A1,1 0 0,0 14,16A1,1 0 0,0 13,15A1,1 0 0,0 12,16A1,1 0 0,0 13,17M13,13A1,1 0 0,0 14,12A1,1 0 0,0 13,11A1,1 0 0,0 12,12A1,1 0 0,0 13,13M13,9A1,1 0 0,0 14,8A1,1 0 0,0 13,7A1,1 0 0,0 12,8A1,1 0 0,0 13,9M17,12.5A0.5,0.5 0 0,0 17.5,12A0.5,0.5 0 0,0 17,11.5A0.5,0.5 0 0,0 16.5,12A0.5,0.5 0 0,0 17,12.5M17,8.5A0.5,0.5 0 0,0 17.5,8A0.5,0.5 0 0,0 17,7.5A0.5,0.5 0 0,0 16.5,8A0.5,0.5 0 0,0 17,8.5M3,3V5H21V3M17,16.5A0.5,0.5 0 0,0 17.5,16A0.5,0.5 0 0,0 17,15.5A0.5,0.5 0 0,0 16.5,16A0.5,0.5 0 0,0 17,16.5M9,17A1,1 0 0,0 10,16A1,1 0 0,0 9,15A1,1 0 0,0 8,16A1,1 0 0,0 9,17M5,13.5A1.5,1.5 0 0,0 6.5,12A1.5,1.5 0 0,0 5,10.5A1.5,1.5 0 0,0 3.5,12A1.5,1.5 0 0,0 5,13.5M5,9.5A1.5,1.5 0 0,0 6.5,8A1.5,1.5 0 0,0 5,6.5A1.5,1.5 0 0,0 3.5,8A1.5,1.5 0 0,0 5,9.5M3,21H21V19H3M9,9A1,1 0 0,0 10,8A1,1 0 0,0 9,7A1,1 0 0,0 8,8A1,1 0 0,0 9,9M9,13A1,1 0 0,0 10,12A1,1 0 0,0 9,11A1,1 0 0,0 8,12A1,1 0 0,0 9,13M5,17.5A1.5,1.5 0 0,0 6.5,16A1.5,1.5 0 0,0 5,14.5A1.5,1.5 0 0,0 3.5,16A1.5,1.5 0 0,0 5,17.5Z"/></svg>
